!!!COM: Porta, Costanzo
!!!CDT:
!!!PTL: Il terzo libro de madrigali a cinque voci
!!!PPP: Venice
!!!PPR: Heirs of Gardano
!!!PDT: 1573
!!!PUB-format:
!!!RISM: P 5189
!!!rime: 612
!!!OTL: Del puro lume onde i celesti giri
!!!AGN: Madrigal
!!!SCT: Trm0612a
!!!SCA: Trm0612a
!!!original-voices: 5
!!!extant-voices: 5
!!!complete: Y
!!!final: E
**kern	**text	**kern	**text	**kern	**text	**kern	**text	**kern	**text
*part5	*part5	*part4	*part4	*part3	*part3	*part2	*part2	*part1	*part1
*staff5	*staff5	*staff4	*staff4	*staff3	*staff3	*staff2	*staff2	*staff1	*staff1
*I"Basso	*	*I"Quinto	*	*I"Tenore	*	*I"Alto	*	*I"Canto	*
*I'B	*	*I'V	*	*I'T	*	*I'A	*	*I'C	*
*oclefF4	*	*oclefC4	*	*oclefC4	*	*oclefC3	*	*oclefC1	*
*clefF4	*	*clefGv2	*	*clefGv2	*	*clefG2	*	*clefG2	*
*k[]	*	*k[]	*	*k[]	*	*k[]	*	*k[]	*
*omet(C|)	*	*omet(C|)	*	*omet(C|)	*	*omet(C|)	*	*omet(C|)	*
*M2/1	*	*M2/1	*	*M2/1	*	*M2/1	*	*M2/1	*
=1	=1	=1	=1	=1	=1	=1	=1	=1	=1
!!LO:TX:a:t=Prima parte.
0r	.	0r	.	1E	Del	0r	.	0r	.
.	.	.	.	2.G	pu-	.	.	.	.
.	.	.	.	4A	-ro	.	.	.	.
=2	=2	=2	=2	=2	=2	=2	=2	=2	=2
1r	.	0r	.	2B	lu-	1r	.	0r	.
.	.	.	.	2G	-me on-	.	.	.	.
1AA	Del	.	.	4c	-de i	2r	.	.	.
.	.	.	.	4A	ce-	.	.	.	.
.	.	.	.	4.c	-le-	[2e	Del	.	.
.	.	.	.	8B	-sti	.	.	.	.
=3	=3	=3	=3	=3	=3	=3	=3	=3	=3
2.C	pu-	1E	Del	2A	gi-	2e]	.	0r	.
.	.	.	.	2G	-ri,	2.g	pu-	.	.
4D	-ro	.	.	.	.	.	.	.	.
2E	lu-	2G	pu-	1r	.	.	.	.	.
.	.	.	.	.	.	4f	-ro	.	.
2C	-me on-	2A	-ro	.	.	2e	lu-	.	.
=4	=4	=4	=4	=4	=4	=4	=4	=4	=4
2G	-de i	2.B	lu-	0r	.	2d	-me on-	0r	.
2E	ce-	.	.	.	.	4g	-de i	.	.
.	.	4G	-me on-	.	.	4g	ce-	.	.
2.A	-le-	4c	-de i	.	.	2e	-le-	.	.
.	.	4A	ce-	.	.	.	.	.	.
.	.	4.c	-le-	.	.	4f	-sti	.	.
4G	-sti	.	.	.	.	[4e	gi-	.	.
.	.	8B	-sti	.	.	.	.	.	.
=5	=5	=5	=5	=5	=5	=5	=5	=5	=5
2F	gi-	2A	gi-	0r	.	4e]	.	1r	.
.	.	.	.	.	.	4d	.	.	.
2E	-ri,	4G	-ri,	.	.	2e	-ri,	.	.
.	.	4B	Del	.	.	.	.	.	.
2r	.	2c	pu-	.	.	4r	.	2e	Del
.	.	.	.	.	.	4A	Del	.	.
2E	Del	2c	-ro-	.	.	[2e	pu-	[2g	pu-
=6	=6	=6	=6	=6	=6	=6	=6	=6	=6
2.G	pu-	1B	-lu-	2E	Del	2e]	.	4g]	.
.	.	.	.	.	.	.	.	4a	-ro
.	.	.	.	2.G	pu-	2d	-ro	1b	lu-
4A	-ro	.	.	.	.	.	.	.	.
2B	lu-	1E	-me on-	.	.	2.g	lu-	.	.
.	.	.	.	4A	-ro	.	.	.	.
2E	-me on-	.	.	2B	lu-	.	.	2g	-me on-
.	.	.	.	.	.	[4e	-me on-	.	.
=7	=7	=7	=7	=7	=7	=7	=7	=7	=7
2AA	-de i	2E	-de i	2A	-me on-	4e]	.	4cc	-de i
.	.	.	.	.	.	2c	-de i	4a	ce-
2AA	ce-	2e	ce-	4E	-de i	.	.	4.cc	-le-
.	.	.	.	4e	ce-	4A	ce-	.	.
.	.	.	.	.	.	.	.	8b	-sti
2AA	-le-	2e	-le-	2.c	-le-	2A	-le-	2a	gi-
2C	-sti	2e	-sti	.	.	2e	-sti	2g	-ri
.	.	.	.	4B	-sti	.	.	.	.
=8	=8	=8	=8	=8	=8	=8	=8	=8	=8
2D	gi-	2d	gi-	2A	gi-	2f	gi-	1r	.
2E	-ri	2B	-ri	2G	-ri	2e	-ri	.	.
2r	.	1r	.	1c	Fe-	1r	.	1e	Fe-
2A	Fe-	.	.	.	.	.	.	.	.
=9	=9	=9	=9	=9	=9	=9	=9	=9	=9
2D	-ce il	0r	.	2A	-ce il	0r	.	2f	-ce il
2A	so-	.	.	2c	so-	.	.	2e	so-
4G	l'e	.	.	4d	-l'e	.	.	4g	l'e
4F	le	.	.	4d	le	.	.	4a	le
4E	stel-	.	.	2e	stel-	.	.	4g	stel-
4C	-le il	.	.	.	.	.	.	4cc	-le il
=10	=10	=10	=10	=10	=10	=10	=10	=10	=10
2.G	Ma-	1r	.	2d	-le il	1r	.	2b	Ma-
.	.	.	.	2e	Ma-	.	.	2b	-str'e-
4E	-str'e-	.	.	.	.	.	.	.	.
2A	-ter-	2r	.	4e	-str'e-	2r	.	2cc	-ter-
.	.	.	.	2c	-ter-	.	.	.	.
2G	-no	2d	For-	.	.	2g	For-	2dd	-no
.	.	.	.	4B	.	.	.	.	.
=11	=11	=11	=11	=11	=11	=11	=11	=11	=11
0r	.	2e	-mò i	2c	-no	2g	-mò i	4r	.
.	.	.	.	.	.	.	.	4cc	For-
.	.	2e	vo-	2r	.	2g	vo-	4b	-mò i
.	.	.	.	.	.	.	.	4g	vo-
.	.	2d	-str'oc-	1r	.	2f	-str'oc-	4a	-str'oc-
.	.	.	.	.	.	.	.	4b	-ch'an-
.	.	2c	-ch'an-	.	.	2e	-ch'an-	[2cc	-co-
=12	=12	=12	=12	=12	=12	=12	=12	=12	=12
2r	.	2d	-co-	2r	.	2f	-co-	4cc]	.
.	.	.	.	.	.	.	.	8bL	.
.	.	.	.	.	.	.	.	8aJ	.
2G	For-	2d	-ra,	4r	.	4g	-ra,	2b	.
.	.	.	.	4d	For-	4g	For-	.	.
2A	-mò i	4r	.	4c	-mò i	4e	-mò i	1cc	-ra,
.	.	4c	For-	4A	vo-	4f	vo-	.	.
2A	vo-	4c	-mò i	8cL	-str'oc-	4.e	-str'oc-	.	.
.	.	.	.	8d	.	.	.	.	.
.	.	4A	vo-	8e	.	.	.	.	.
.	.	.	.	8cJ	.	8f	-ch'an-	.	.
=13	=13	=13	=13	=13	=13	=13	=13	=13	=13
2G	-stri oc-	2B	-str'oc-	4d	.	2g	-co-	0r	.
.	.	.	.	4e	-ch'an-	.	.	.	.
2F	-ch'an-	4d	-ch'an-	4.f	-co-	2a	.	.	.
.	.	2c	-co-	.	.	.	.	.	.
.	.	.	.	8e	.	.	.	.	.
2G	-co-	.	.	1d	.	1g	.	.	.
.	.	8BL	.	.	.	.	.	.	.
.	.	8AJ	.	.	.	.	.	.	.
2G	-ra,	2B	.	.	.	.	.	.	.
=14	=14	=14	=14	=14	=14	=14	=14	=14	=14
2r	.	1c	-ra,	1e	-ra,	2g	-ram	2r	.
2C	et	.	.	.	.	4r	.	2g	et
.	.	.	.	.	.	4e	et	.	.
4C	al	1r	.	1r	.	4e	al	4g	al
4C	go-	.	.	.	.	4e	go-	4g	go-
2D	-ver-	.	.	.	.	2d	-ver-	2f	-ver-
=15	=15	=15	=15	=15	=15	=15	=15	=15	=15
4E	-no	1r	.	1r	.	4B	-no	4e	-no
4C	Vi	.	.	.	.	4c	Vi	4e	Vi
4E	po-	.	.	.	.	4c	po-	4g	po-
4F	-sa a-	.	.	.	.	4c	-se a-	4a	-se a-
2G	-mor	2r	.	2d	per-	2B	-mor	1g	-mor
4r	.	2G	et	4B	-ché	2d	per-	.	.
4G	per-	.	.	4B	gl'in-	.	.	.	.
=16	=16	=16	=16	=16	=16	=16	=16	=16	=16
4E	-ché	4G	al	2.c	-for-	4e	-ché	0r	.
4E	gl'in-	4G	go-	.	.	4e	gl'in-	.	.
2F	-for-	2A	-ver-	.	.	4c	-for-	.	.
.	.	.	.	8BL	.	4d	-mi e	.	.
.	.	.	.	8AJ	.	.	.	.	.
2E	-mi e	4B	-no	4G	.	2e	gi-	.	.
.	.	4G	Vi	4c	-mi e	.	.	.	.
[2G	gi-	4B	po-	[2B	gi-	2d	-ri,	.	.
.	.	4c	-se a-	.	.	.	.	.	.
=17	=17	=17	=17	=17	=17	=17	=17	=17	=17
4G]	.	1d	-mor	4B]	.	2r	.	2r	.
8F#XL	.	.	.	8AL	.	.	.	.	.
8EJ	.	.	.	8GJ	.	.	.	.	.
2F#X	.	.	.	2A	.	2d	per-	2dd	per-
4G	-ri,	1r	.	4G	-re,	4d	-ché	4b	-ché
4G	per-	.	.	4d	per-	4d	gl'in-	4b	gl'in-
4C	-ché	.	.	4e	-ché	[2g	-for-	2cc	-for-
4E	gl'in-	.	.	4e	gl'in-	.	.	.	.
=18	=18	=18	=18	=18	=18	=18	=18	=18	=18
2G	-for-	2r	.	1d	-for-	2g]	.	2b	-mi e
2D	-mi e	2d	per-	.	.	2f	-mi e	2a	gi-
1E	gi-	4B	-ché	2G	-mi,	1e	gi-	2g	-ri,
.	.	4B	gl'in-	.	.	.	.	.	.
.	.	2c	-for-	4r	.	.	.	4e	gl'in-
.	.	.	.	4G	gl'in-	.	.	[4g	-for-
=19	=19	=19	=19	=19	=19	=19	=19	=19	=19
1E	-ri.	4B	-mi e	4B	-for-	1e	-ri.	4g]	.
.	.	2A	gi-	4c	-mi e	.	.	4a	-mi e
.	.	.	.	2B	gi-	.	.	1b	gi-
.	.	8G#XL	.	.	.	.	.	.	.
.	.	8F#XJ	.	.	.	.	.	.	.
1r	.	2G#X	.	2E	-ri.	2r	.	.	.
.	.	2A	-ri.	4r	.	2e	E	2cc	-ri.
.	.	.	.	4A	E	.	.	.	.
=20	=20	=20	=20	=20	=20	=20	=20	=20	=20
0r	.	0r	.	2d	so-	1f	so-	4r	.
.	.	.	.	.	.	.	.	4a	E
.	.	.	.	2d	-lo un	.	.	4a	so-
.	.	.	.	.	.	.	.	4a	-lo un
.	.	.	.	2c#X	rag-	2e	-lo un	2.a	rag-
.	.	.	.	2d	-gio	[2a	rag-	.	.
.	.	.	.	.	.	.	.	4dd	-gio
=21	=21	=21	=21	=21	=21	=21	=21	=21	=21
0r	.	0r	.	2e	che	4a]	.	4cc	che
.	.	.	.	.	.	4g	-gio	4b	di
.	.	.	.	2A	di	4f	che	2cc	lor
.	.	.	.	.	.	4e	di	.	.
.	.	.	.	2d	lor	2f	lor	4a	si
.	.	.	.	.	.	.	.	4.b	mi-
.	.	.	.	2c	si	2e	si	.	.
.	.	.	.	.	.	.	.	8a	.
.	.	.	.	.	.	.	.	[4a	.
=22	=22	=22	=22	=22	=22	=22	=22	=22	=22
2r	.	2r	.	1B	mi-	2d	mi-	4a]	.
.	.	.	.	.	.	.	.	8g#XL	.
.	.	.	.	.	.	.	.	8f#XJ	.
2E	E	2B	E	.	.	4e	-ri,	2g#X	.
.	.	.	.	.	.	4e	E	.	.
2A	so-	2c	so-	1A	-ri	2e	so-	4a	-ri,
.	.	.	.	.	.	.	.	2cc	che
2A	-lo un	2c	-lo un	.	.	2f	-lo un	.	.
.	.	.	.	.	.	.	.	4a	di
=23	=23	=23	=23	=23	=23	=23	=23	=23	=23
2G#X	rag-	2B	rag-	0r	.	1e	rag-	2b	lor
2A	-gio	2A	-gio	.	.	.	.	2cc	si
2B	che	2G#X	che	.	.	2e	-gio	1b	mi-
2E	di	2B	di	.	.	4r	.	.	.
.	.	.	.	.	.	4g	che	.	.
=24	=24	=24	=24	=24	=24	=24	=24	=24	=24
2A	lor	2c	lor	0r	.	4f	di	2a	-ri
.	.	.	.	.	.	2e	lor	.	.
2G	si	2B	si	.	.	.	.	2r	.
.	.	.	.	.	.	4e	si	.	.
2F	mi-	2A	mi-	.	.	2d	mi-	1r	.
2E	-ri	2B	-ri	.	.	2e	-ri	.	.
=25	=25	=25	=25	=25	=25	=25	=25	=25	=25
2r	.	1c	Lun-	2r	.	1e	Lun-	2r	.
2C	Lun-	.	.	2G	Lun-	.	.	2cc	Lun-
2GG	-ge	2B	-ge	2G	-ge	2d	-ge	2dd	-ge
2D	sgom-	2A	sgom-	2F	sgom-	2d	sgom-	2dd	sgom-
=26	=26	=26	=26	=26	=26	=26	=26	=26	=26
4C	-bra	4c	-bra	4E	-bra	4e	-bra	4g	-bra
4AA	da	4c	da	4E	da	4e	da	4a	da
4E	noi	4B	noi	2.G	noi	2e	noi	2b	noi
4E	la	4G	la	.	.	.	.	.	.
2D	not-	4A	not-	.	.	2r	.	4r	.
.	.	4A	t'e'l	4F	la	.	.	4dd	la
2C	t'e'l	[2c	ver-	4G	not-	2e	la	4g	not-
.	.	.	.	4G	-t'e'l	.	.	4cc	-t'e'l
=27	=27	=27	=27	=27	=27	=27	=27	=27	=27
2F	ver-	2c]	.	2A	ver-	4f	not-	2cc	ver-
.	.	.	.	.	.	4c	-t'e'l	.	.
2C	-no	2c	-no	2G	-no	2e	ver-	2cc	-no
2r	.	2r	.	2G	De	4d	-no	2r	.
.	.	.	.	.	.	4d	De	.	.
2G	De	4r	.	2B	gli af-	4d	gli af-	2b	De
.	.	4d	De	.	.	[4g	-fet-	.	.
=28	=28	=28	=28	=28	=28	=28	=28	=28	=28
4E	gli af-	4e	gli af-	2c	-fet-	4g]	.	4g	gli af-
4.A	-fet-	2c	-fet-	.	.	4e	-ti	4.cc	-fet-
.	.	.	.	2A	-ti	2e	mon-	.	.
8AA	-ti	.	.	.	.	.	.	8cc	-ti
4AA	mon-	4A	-ti	.	.	.	.	4cc	mon-
2D	-da-	2F	mon-	1A	mon-	2d	-da-	[1a	-da-
2AA	-ni,	[2E	-da-	.	.	2c	-ni,	.	.
=29	=29	=29	=29	=29	=29	=29	=29	=29	=29
0r	.	2E]	.	1B	-da-	1r	.	2a]	.
.	.	2E	-ni,	.	.	.	.	2g#X	-ni,
.	.	2r	.	1c#X	-ni,	1e	e un	2r	.
.	.	2A	e un	.	.	.	.	2a	e un
=30	=30	=30	=30	=30	=30	=30	=30	=30	=30
0r	.	2d	fo-	0r	.	2.f	fo-	2a	fo-
.	.	2d	-co in-	.	.	.	.	2a	-co in-
.	.	.	.	.	.	4d	-co in-	.	.
.	.	2c	-ter-	.	.	2e	-ter-	2cc	-ter-
.	.	4A	-no	.	.	4e	-no	4cc	-no
.	.	4c	V'ac-	.	.	4e	V'ac-	4cc	V'ac-
=31	=31	=31	=31	=31	=31	=31	=31	=31	=31
0r	.	4.d	-cen-	0r	.	4.f#X	-cen-	4.a	-cen-
.	.	8G	-de	.	.	8g	-de	8b	-de
.	.	4A	di	.	.	4e	di	4cc	di
.	.	4F	leg-	.	.	4fnXi	leg-	4a	leg-
.	.	1c	-gia-	.	.	2e	-gia-	2g	-gia-
.	.	.	.	.	.	[2g	-dri al-	2cc	-dri al-
=32	=32	=32	=32	=32	=32	=32	=32	=32	=32
0r	.	2d	-dri al-	0r	.	4g]	.	4b	-ti
.	.	.	.	.	.	4f	-ti	4a	de-
.	.	4d	-ti	.	.	2f	de-	2.dd	-si-
.	.	4D	de-	.	.	.	.	.	.
.	.	1A	-si-	.	.	1e	-si-	.	.
.	.	.	.	.	.	.	.	8cc#iL	.
.	.	.	.	.	.	.	.	8bJ	.
.	.	.	.	.	.	.	.	2cc#i	.
=33	=33	=33	=33	=33	=33	=33	=33	=33	=33
2r	.	1D	-ri,	2r	.	2d	-ri,	2dd	-ri,
2D	e un	.	.	2A	e un	2f	e un	4r	.
.	.	.	.	.	.	.	.	4a	e un
2A	fo-	1r	.	2c	fo-	2e	fo-	2a	fo-
2A	-co in-	.	.	2c	-co in-	2e	-co in-	2a	-co in
=34	=34	=34	=34	=34	=34	=34	=34	=34	=34
2G	-ter-	1r	.	2d	-ter-	2g	-ter-	2b	ter-
4E	-no	.	.	4e	-no	4g	-no	4cc	-no
4G	V'ac-	.	.	4d	V'ac-	4g	V'ac-	4b	V'ac-
4.A	-cen-	2r	.	4.c#X	-cen-	4.e	-cen-	4.a	-cen-
8D	-de	.	.	8d	-de	8f	-de	8a	-de
4E	di	4r	.	4B	di	4e	di	4g	di
4C	leg-	4G	V'ac-	4cnXi	leg-	4g	leg-	4cc	leg-
=35	=35	=35	=35	=35	=35	=35	=35	=35	=35
1G	-gia-	4.B	-cen-	2d	-gia-	1g	-gia-	2b	-gia-
.	.	8c	-de	.	.	.	.	.	.
.	.	4d	di	2B	-dri,	.	.	2.b	-dri al-
.	.	4d	leg-	.	.	.	.	.	.
2A	-dri al-	2c	-gia-	4r	.	1e	-dri al-	.	.
.	.	.	.	2c	di	.	.	4a	-ti
4A	-ti	2A	-dri al-	.	.	.	.	[2a	de-
4AA	de-	.	.	4c	leg-	.	.	.	.
=36	=36	=36	=36	=36	=36	=36	=36	=36	=36
*lig	*	*	*	*	*	*	*	*	*
1E	-si-	4B	-ti	2B	-gia-	2.e	-ti	4a]	.
.	.	4E	de-	.	.	.	.	8g#XL	.
.	.	.	.	.	.	.	.	8f#XJ	.
.	.	1e	-si-	2B	-gri al-	.	.	2g#X	.
.	.	.	.	.	.	4B	de-	.	.
1AA	.	.	.	4A	-ti	2c#X	-si-	1a	-si-
*Xlig	*	*	*	*	*	*	*	*	*
.	.	.	.	4E	de-	.	.	.	.
.	.	2d	.	2F	-di-	2d	.	.	.
=37	=37	=37	=37	=37	=37	=37	=37	=37	=37
0AAl	-ri.	0c#Xl	-ri.	0El	-ri.	0el	-ri.	0al	-ri.
=38||	=38||	=38||	=38||	=38||	=38||	=38||	=38||	=38||	=38||
!!LO:TX:a:t=Seconda parte.
0r	.	1e	La	2r	.	0r	.	2r	.
.	.	.	.	2A	La	.	.	2a	La
.	.	4.f	fiam-	4.d	fiam-	.	.	4.a	fiam-
.	.	8e	-ma	8c	-ma	.	.	8a	-ma
.	.	4f	da	4d	da	.	.	4a	da
.	.	4d	lor	4f	lor	.	.	4a	lor
=39	=39	=39	=39	=39	=39	=39	=39	=39	=39
0r	.	2c	de-	2e	de-	0r	.	2cc	de-
.	.	2G	-sta a	2d	-sta a	.	.	2b	-sta a
.	.	2A	lor	2c	lor	.	.	2e	lor
.	.	2E	sem-	2B	sem-	.	.	2g	sem-
=40	=40	=40	=40	=40	=40	=40	=40	=40	=40
0r	.	1A	-bian-	1c	-bian-	0r	.	2f	-biam-
.	.	.	.	.	.	.	.	2e	-ti
.	.	2G	-ti	2B	-ti	.	.	4r	.
.	.	.	.	.	.	.	.	4.g	L'a-
.	.	4.c	L'a-	4.A	L'a-	.	.	.	.
.	.	.	.	.	.	.	.	8f	-ni-
.	.	.	.	.	.	.	.	4f	-me
.	.	8c	-ni-	8A	-ni-	.	.	.	.
=41	=41	=41	=41	=41	=41	=41	=41	=41	=41
1r	.	4B	-me	4G	-me	2r	.	2e	ren-
.	.	2A	ren-	2c	ren-	.	.	.	.
.	.	.	.	.	.	4r	.	2e	-de e
.	.	4G	-de e	4B	-de e	4B	E	.	.
2r	.	2F	l'ar-	2A	l'ar-	4c	non	2a	l'ar-
.	.	.	.	.	.	4d	le	.	.
4r	.	2E	-de	4B	-de e	2e	sfa-	2g	-de
4E	E	.	.	[4c	non	.	.	.	.
=42	=42	=42	=42	=42	=42	=42	=42	=42	=42
4F	non	1r	.	4c]	.	2d	-ce,	4a	non
4G	le	.	.	4B	le	.	.	4b	le
2A	sfa-	.	.	4.e	sfa-	2r	.	2cc	sfa-
.	.	.	.	8c	.	.	.	.	.
2G	-ce,	2r	.	2d	.	2r	.	2b	-ce,
2C	Ma	2G	Ma	4e	-ce,	2c	Ma	4r	.
.	.	.	.	4e	Ma	.	.	4cc	Ma
=43	=43	=43	=43	=43	=43	=43	=43	=43	=43
2C	le	2G	se	2e	le	2g	le	2cc	le
2C	fa	2G	fa	2e	fa	4g	fa	2cc	fa
.	.	.	.	.	.	2e	pu-	.	.
1F	pu-	1A	pu-	2c	pu-	.	.	1a	pu-
.	.	.	.	.	.	8dL	.	.	.
.	.	.	.	.	.	8cJ	.	.	.
.	.	.	.	2A	-re	2d	.	.	.
=44	=44	=44	=44	=44	=44	=44	=44	=44	=44
1E	-re	1B	-re	2r	.	0e	-re	2g#X	-re
.	.	.	.	1G#X	di	.	.	1b	di
1r	.	1E	di	.	.	.	.	.	.
.	.	.	.	2G#i	ter-	.	.	2b	ter-
=45	=45	=45	=45	=45	=45	=45	=45	=45	=45
4.AA	di	1E	ter-	2.A	-re-	1r	.	2.cc	-re-
8AA	ter-	.	.	.	.	.	.	.	.
4C	-re-	.	.	.	.	.	.	.	.
4GG	-ne e	.	.	4B	-ne e	.	.	4b	-ne
1AA	mi-	2.C	-re-	[1c	mi-	4.e	di	2a	mi-
.	.	.	.	.	.	8e	ter-	.	.
.	.	.	.	.	.	4f	-re-	2a	-ste,
.	.	4E	-ne e	.	.	4c	-ne e	.	.
=46	=46	=46	=46	=46	=46	=46	=46	=46	=46
1GG	-ste,	2G	mi-	2c]	.	1d	mi-	1r	.
.	.	4D	-ste,	2B	-ste,	.	.	.	.
.	.	4d	Ma	.	.	.	.	.	.
2r	.	4B	le	2r	.	2d	-ste,	2g	Ma
.	.	4B	fa	.	.	.	.	.	.
2C	Me	[2c	pu-	2G	Ma	2e	Ma	4g	le
.	.	.	.	.	.	.	.	4g	fa
=47	=47	=47	=47	=47	=47	=47	=47	=47	=47
2C	le	2c]	.	4G	le	2e	le	1cc	pu-
.	.	.	.	4G	fa	.	.	.	.
2C	fa	2G	-re	1c	pu-	2e	fa	.	.
1F	pu-	4r	.	.	.	2c	pu-	1a	-re
.	.	2A	di	.	.	.	.	.	.
.	.	.	.	2A	-re	2d	-re	.	.
.	.	4A	ter-	.	.	.	.	.	.
=48	=48	=48	=48	=48	=48	=48	=48	=48	=48
2E	-re	4c	-re-	4r	.	4r	.	2r	.
.	.	4G	-ne e	4B	di	2e	di	.	.
4r	.	1A	mi-	4c	ter-	.	.	2a	di
2AA	di	.	.	4.C	-re-	4e	ter-	.	.
.	.	.	.	.	.	4f	-re-	4a	ter-
.	.	.	.	8D	.	.	.	.	.
4AA	der-	.	.	4E	.	4c	-ne e	2cc	-re-
4C	-re-	2G	-ste.	4E	-ne e	4.e	mi-	.	.
4GG	-ne e	.	.	[4G	mi-	.	.	4b	-ne
.	.	.	.	.	.	8d	.	.	.
=49	=49	=49	=49	=49	=49	=49	=49	=49	=49
2AA	mi-	1r	.	4G]	.	2c	.	2a	mi-
.	.	.	.	4F#i	.	.	.	.	.
2GG	-ste.	.	.	2G	-ste.	2B	-ste.	2d	-ste.
1r	.	1D	Non	2r	.	2r	.	2r	.
.	.	.	.	2A	Non	2d	Non	2f	Non
=50	=50	=50	=50	=50	=50	=50	=50	=50	=50
0r	.	2D	è	1A	è	2d	è	2f	è
.	.	2C#X	te-	.	.	2e	te-	2e	te-
.	.	2D	-ma o	1A	te-	2f	-ma o	2d	-ma o
.	.	2F	do-	.	.	2d	do-	2a	do-
=51	=51	=51	=51	=51	=51	=51	=51	=51	=51
0r	.	1E	-lor	2B	-ma o	1e	-lor	1g#X	-lor
.	.	.	.	2B	do-	.	.	.	.
.	.	2r	.	1c	-lor	2r	.	2r	.
.	.	2A	che	.	.	2e	che	2a	che
=52	=52	=52	=52	=52	=52	=52	=52	=52	=52
0r	.	1.A	mai	2r	.	1e	mai	1cc	mai
.	.	.	.	2c	che	.	.	.	.
.	.	.	.	1A	mai	2f	n'at-	2cc	n'at-
.	.	2c	n'at-	.	.	[2e	-tri-	[2a	-tri-
=53	=53	=53	=53	=53	=53	=53	=53	=53	=53
0r	.	1B	-tri-	1d	n'at-	4e]	.	2a]	.
.	.	.	.	.	.	4d	.	.	.
.	.	.	.	.	.	1d	.	2g	.
.	.	1A	-ste	1e	-tri-	.	.	1a	-ste;
.	.	.	.	.	.	2c#X	-ste;	.	.
=54	=54	=54	=54	=54	=54	=54	=54	=54	=54
2r	.	0r	.	1d	-ste;	4r	.	2r	.
.	.	.	.	.	.	4d	Se-	.	.
2D	Se-	.	.	.	.	2.f	-re-	2a	Se-
2.A	-re-	.	.	1r	.	.	.	2.cc	-re-
.	.	.	.	.	.	4e	-na è	.	.
.	.	.	.	.	.	4f	co-	.	.
4G	-na è	.	.	.	.	4g	-me	4b	-na è
=55	=55	=55	=55	=55	=55	=55	=55	=55	=55
4A	co-	0r	.	2r	.	4f	vo-	4cc	co-
4B	-me	.	.	.	.	8eL	.	4dd	-me
.	.	.	.	.	.	8dJ	.	.	.
2c	voi	.	.	4r	.	2e	-i	2g	voi
.	.	.	.	4E	Se-	.	.	.	.
4r	.	.	.	2.A	-re-	1r	.	2e	la
4C	la	.	.	.	.	.	.	.	.
4D	no-	.	.	.	.	.	.	4f	no-
4E	-stra	.	.	4G	-na è	.	.	4g	-stra
=56	=56	=56	=56	=56	=56	=56	=56	=56	=56
2D	pa-	2F	la	4A	co-	2r	.	2f	pa-
.	.	.	.	4B	-me	.	.	.	.
2C	-ce,	4G	no-	4c	voi	4r	.	2e	-ce,
.	.	4A	-sra	4c	la	4A	la	.	.
1r	.	2G	pa-	4d	no-	4B	no-	1r	.
.	.	.	.	4e	-stra	4c	-stra	.	.
.	.	2G	-ce	2d	pa-	2B	pa-	.	.
=57	=57	=57	=57	=57	=57	=57	=57	=57	=57
2r	.	2r	.	1c	-ce,	2c	-ce,	2r	.
2AA	E	2E	E	.	.	4r	.	2a	E
.	.	.	.	.	.	4d	E	.	.
1D	son	1F	son	4r	.	1c	son	1a	son
.	.	.	.	4A	E	.	.	.	.
.	.	.	.	2A	son	.	.	.	.
=58	=58	=58	=58	=58	=58	=58	=58	=58	=58
*col	*	*col	*	*col	*	*col	*	*col	*
3.C	pian-	3.E	pian-	3.e	pian	3.g	pian	3.cc	pian
6GG	-ti	6G	-ti	6d	ti	6g	ti	6b	ti
3AA	di	3C	di	3c	di	3e	di	3a	di
*	*	*	*	*	*	*	*	*Xcol	*
3%2D	gio-	3%2F	gio-	3%2A	gio-	3%2d	gio-	1a	gio-
3AA	-ia i	3E	-ia i	3e	-ia i	3c#X	-ia i	.	.
*Xcol	*	*Xcol	*	*Xcol	*	*Xcol	*	*	*
=59	=59	=59	=59	=59	=59	=59	=59	=59	=59
2A	no-	2D	no-	2f	no-	2d	no-	2a	-ia i
2G#X	-stri	2E	-stri	2e	-stri	2B	-stri	[2ee	no-
[1A	pian-	2.e	pian-	[1c	pian-	4A	pian-	2ee]	.
.	.	.	.	.	.	4B	.	.	.
.	.	.	.	.	.	4c	.	2cc	-stri
.	.	4d	.	.	.	4d	.	.	.
=60	=60	=60	=60	=60	=60	=60	=60	=60	=60
1A]	.	2c	.	1c]	.	1e	.	[1a	pian-
.	.	2A	-ti,	.	.	.	.	.	.
1E	-ti,	2r	.	2B	-ti,	2e	-ti,	2a]	.
.	.	2B	Se-	2E	Se-	4r	.	2g#X	-ti,
.	.	.	.	.	.	4e	Se-	.	.
=61	=61	=61	=61	=61	=61	=61	=61	=61	=61
1r	.	2.c	-re-	2.A	-re-	4f	-re-	1r	.
.	.	.	.	.	.	4e	-na è	.	.
.	.	.	.	.	.	4f	co-	.	.
.	.	4B	-na è	4G	-na è	4g	-me	.	.
2r	.	4c	co-	4A	co-	1e	voi	2r	.
.	.	4d	-me	4B	-me	.	.	.	.
2AA	Se-	2e	voi	2c	voi,	.	.	2a	Se-
=62	=62	=62	=62	=62	=62	=62	=62	=62	=62
2.A	-re-	1r	.	1r	.	2e	la	2.cc	-re-
.	.	.	.	.	.	4f	no-	.	.
4G	-na è	.	.	.	.	4g	-stra	4b	-na è
4A	co-	1r	.	2r	.	2f	pa-	4cc	co-
4B	-me	.	.	.	.	.	.	4dd	-me
2c	voi	.	.	4r	.	2e	-ce,	2g	voi
.	.	.	.	4E	Se-	.	.	.	.
=63	=63	=63	=63	=63	=63	=63	=63	=63	=63
4r	.	1r	.	2.A	-re-	1r	.	2e	la
4C	la	.	.	.	.	.	.	.	.
4D	no-	.	.	.	.	.	.	4f	no-
4E	-stra	.	.	4G	-na è	.	.	4g	-stra
2D	pa-	2F	la	4A	co-	2r	.	2f	pa-
.	.	.	.	4B	-me	.	.	.	.
2C	-ce,	4G	no-	4c	voi	4r	.	2e	-ce,
.	.	4A	-stra	4c	la	4A	la	.	.
=64	=64	=64	=64	=64	=64	=64	=64	=64	=64
1r	.	2G	pa-	4d	no-	4B	no-	1r	.
.	.	.	.	4e	-stra	4c	-stra	.	.
.	.	2G	-ce,	2d	pa-	2B	pa-	.	.
2r	.	2r	.	1c	-ce,	2c	-ce,	2r	.
2AA	E	2E	E	.	.	4r	.	2a	E
.	.	.	.	.	.	4e	E	.	.
=65	=65	=65	=65	=65	=65	=65	=65	=65	=65
1D	son	1F	son	4r	.	1d	son	1a	son
.	.	.	.	4A	E	.	.	.	.
.	.	.	.	2A	son	.	.	.	.
*col	*	*col	*	*col	*	*col	*	*col	*
3.C	pian-	3.E	pian-	3.e	pian	3.g	pian	3.cc	pian
6GG	-ti	6G	-ti	6d	ti	6g	ti	6b	ti
3AA	di	3C	di	3c	di	3e	di	3a	di
*	*	*	*	*	*	*	*	*Xcol	*
=66	=66	=66	=66	=66	=66	=66	=66	=66	=66
3%2D	gio-	3%2F	gio-	3%2A	gio-	3%2d	gio-	1a	gio-
3AA	-ia i	3E	-ia i	3e	-ia i	3c#X	-ia i	.	.
*Xcol	*	*Xcol	*	*Xcol	*	*Xcol	*	*	*
2A	no-	2D	no-	2f	no-	2d	no-	2a	-ia i
2G#X	-stri-	2E	-stri	2e	-stri	2B	-stri	[2ee	no-
=67	=67	=67	=67	=67	=67	=67	=67	=67	=67
0A	-pian-	2.e	pian-	0c	pian-	4A	pian-	2ee]	.
.	.	.	.	.	.	4B	.	.	.
.	.	.	.	.	.	4c	.	2cc	-stri
.	.	4d	.	.	.	4d	.	.	.
.	.	4c	.	.	.	1e	.	1a	pian-
.	.	4B	.	.	.	.	.	.	.
.	.	2A	.	.	.	.	.	.	.
=68	=68	=68	=68	=68	=68	=68	=68	=68	=68
0El	-ti.	0G#Xl	-ti.	0Bl	-ti.	0el	-ti.	0bl	-ti.
==	==	==	==	==	==	==	==	==	==
*-	*-	*-	*-	*-	*-	*-	*-	*-	*-
!!!system-decoration: [*]
!!!YEM:	Costanzo Porta, "Del puro lume onde i celesti giri" 1573 (Trm 0612a; 20 Oct 2018) Tasso in Music Project (http://www.tassomusic.org) Copyright 2018 Emiliano Ricciardi
!!!RDF**kern: i = editorial accidental
!!!RDF**kern: l = terminal long
!!!ENC: Emiliano Ricciardi
!!!END: 2018
!!!EED: Donnelly, Daniel
!!!EEV: 2018/10/28
!!!YEC: Copyright 2018 Emiliano Ricciardi, All Rights Reserved
!!!ONB: Translated from MusicXML on 2018/10/28 and edited by Craig Stuart Sapp
!!@@BEGIN:	VERSEDATA
!!@SOLERTI:	612
!!@CATALOGNUM:	Trm0612
!!@LAST_MODIFIED: 2020/07/12
!!@TITLE:		Del puro lume onde i celesti giri
!!@GENRE:		sonetto
!!@MANUSRC:	Amz, C, I<sub>4</sub>, V<sub>2</sub>, V<sub>8</sub>
!!@PRINTSRC:	8, 9, 11, 12, 13, 15, 20, 24, 29, 33, 67, 85, 87, 141, 166, 169
!!@@BEGIN:	VERSES
!!@ABOUTIT:	Loda gli occhi de la signora Lucrezia Susena, dama de la signora Duchessa d'Urbino, dicendo che son formati da la luce de le stelle e del sole.
!!@ABOUTEN:	He prraises the eyes of lady Lucrezia Susena, lady in waiting of lady Duchess of Urbino, saying that they are made of the light of the starts and of the sun.
!!@EDITOR:	Solerti, Angelo
!!@EDITION_TITLE: Le Rime di Torquato Tasso
!!@EDITION_LOC:	Bologna
!!@EDITION_PUB:	Romagnoli-Dall’Acqua
!!@EDITION_DATE:  1898-1902
!!@EDITION_VOL:	3
!!@EDITION_PAGE:  152
!!@TRANSLATOR:	Emiliano Ricciardi and Amyrose McCue Gill
!!@VERSE:
!!	Del puro lume, onde i celesti giri
!!	Fece e 'l sole e le Stelle, il Mastro eterno
!!	Formò i vostri occhi allora, ed al governo
!!	Vi pose Amor perché l'informi e giri.
!!@VERSE:
!!	E sol un raggio che di lor si miri
!!	Lunge sgombra da noi la notte e 'l verno
!!	De gli affetti mondani, e un fuoco interno
!!	V'accende di leggiadri almi desiri.
!!@VERSE:
!!	La fiamma da lor desta a lor sembianti
!!	L'anime rende e l'arde e non le sface,
!!	Ma le fa pure di terrene e miste.
!!@VERSE:
!!	Non è tema o dolor che mai n'attriste;
!!	Serena è come voi la nostra pace,
!!	E son pianti di gioia i nostri pianti.
!!@TVERSE:
!!	Of pure light, made by the heavenly spheres
!!	[Of] the sun and the Stars, the eternal Master
!!	Formed your eyes thus, and at the helm
!!	He placed Love so that [Love] might shape and turn it.
!!@TVERSE:
!!	And just one ray that emanates from them
!!	Clears away from us the night and winter
!!	Of worldly matters—and an interior fire
!!	Inflames you with graceful holy desires.
!!@TVERSE:
!!	The flame given by them makes the souls
!!	Resemble them, and burns and does not unmake them,
!!	But purifies them of earthly imperfections.
!!@TVERSE:
!!	It is not fear or pain that ever saddens us;
!!	Our peace is tranquil, like you,
!!	And our cries are cries of joy.
!!@@END:		VERSES
!!@OTHER_CRIT_ED:   Torquato Tasso, <i>Rime d’amore (secondo il codice
!!		Chigiano L VIII 302)</i>, eds. Franco Gavazzeni and
!!		Vercingetorige Martignone, vol. 4 of <i>Edizione
!!		Nazionale delle opere di Torquato Tasso</i>
!!		(Alessandria: Edizioni Dell’Orso, 2004).
!!@ATTRIBUTION_ABOUT:	Secure
!!		<br>
!!		Among other authoritative sources (see Literary
!!		Sources), this poem appears in the autograph Chigiano
!!		L.VIII.302 (Biblioteca Vaticana, Rome), compiled
!!		around 1584&ndash;85.
!!@DATING:	In or before 1573
!!	<br>
!!	The earliest datable appearance of this poem is in a musical setting by Costanzo Porta published in 1573 (see Musical Settings).
!!@DEDICATEE:	Susena, Lucrezia ?
!!@DEDICATEE_INFO:
!!		The poem is addressed to Susena in the authoritative
!!		authograph Chigiano L.VIII.302 (Biblioteca Vaticana,
!!		Rome). In another manuscript, however, the poem is
!!		addressed to Tarquinia Molza, probably because of the
!!		Neoplatonic insipiration of the sonnet.
!!@COMMENTARY:
!!@@END:		VERSEDATA
!!@@BEGIN:	SETTING
!!@CATALOGNUM:	Trm0612a
!!@RIMETITLE:	Del puro lume onde i celesti giri
!!@SOLERTI:	612
!!@COMPOSER:	Porta, Costanzo
!!@PRINCEPSTITLE:	Il terzo libro de madrigali a cinque voci
!!@PRINCEPSLOC:	Venetia
!!@NORMLOC:	Venice
!!@NORMPUB:	Heirs of Gardano
!!@NORMPUBSHORT:	Gardano
!!@PRINCEPSPUB:	Figliuoli di A. Gardano
!!@PRINCEPSYEAR:	1573
!!@PRINCEPSRISM:	P 5189
!!@REPRINTS:	
!!@OVOICES:	5
!!@EXTANTVOICES:	5
!!@PARTBOOKS:	
!!@EXTPARTBOOKS:	
!!@OCLEFS:	C1,C3,C4,C4,F4
!!@OMENSURATION:	Cut-C
!!@OKEYSIG:	-
!!@FINAL:	E
!!@TIMPEDITOR:	Donnelly, Daniel
!!@NOTE:		
!!@@END:		SETTING
